Humanity/places/48/folder.svg

<?xml version="1.0" encoding="UTF-8" standalone="no"?>
<!-- Created with Inkscape (http://www.inkscape.org/) -->

<svg
   xmlns:svg="http://www.w3.org/2000/svg"
   xmlns="http://www.w3.org/2000/svg"
   xmlns:xlink="http://www.w3.org/1999/xlink"
   version="1.0"
   width="48"
   height="48"
   id="svg2696">
  <defs
     id="defs2698">
    <linearGradient
       id="linearGradient3484">
      <stop
         id="stop3486"
         style="stop-color:#bdbdbd;stop-opacity:1"
         offset="0" />
      <stop
         id="stop3488"
         style="stop-color:#d0d0d0;stop-opacity:1"
         offset="1" />
    </linearGradient>
    <radialGradient
       cx="3"
       cy="5.01718"
       r="21"
       fx="3"
       fy="5.01718"
       id="radialGradient2788"
       xlink:href="#linearGradient3484"
       gradientUnits="userSpaceOnUse"
       gradientTransform="matrix(-1.274898e-8,1.7142916,-2.159331,-1.4599595e-8,12.809361,2.8570011)" />
    <linearGradient
       id="linearGradient6404">
      <stop
         id="stop6406"
         style="stop-color:#f9f9f9;stop-opacity:1"
         offset="0" />
      <stop
         id="stop6408"
         style="stop-color:#c9c9c9;stop-opacity:1"
         offset="1" />
    </linearGradient>
    <linearGradient
       x1="62.988873"
       y1="13.182598"
       x2="62.988873"
       y2="16.19013"
       id="linearGradient2786"
       xlink:href="#linearGradient6404"
       gradientUnits="userSpaceOnUse"
       gradientTransform="translate(-50.940898,0)" />
    <linearGradient
       id="linearGradient5060-820">
      <stop
         id="stop2681"
         style="stop-color:black;stop-opacity:1"
         offset="0" />
      <stop
         id="stop2683"
         style="stop-color:black;stop-opacity:0"
         offset="1" />
    </linearGradient>
    <radialGradient
       cx="605.71429"
       cy="486.64789"
       r="117.14286"
       fx="605.71429"
       fy="486.64789"
       id="radialGradient7600-312"
       xlink:href="#linearGradient5060-820"
       gradientUnits="userSpaceOnUse"
       gradientTransform="matrix(-0.03212956,0,0,0.03705882,23.363215,25.412461)" />
    <linearGradient
       id="linearGradient5060-179">
      <stop
         id="stop2675"
         style="stop-color:black;stop-opacity:1"
         offset="0" />
      <stop
         id="stop2677"
         style="stop-color:black;stop-opacity:0"
         offset="1" />
    </linearGradient>
    <radialGradient
       cx="605.71429"
       cy="486.64789"
       r="117.14286"
       fx="605.71429"
       fy="486.64789"
       id="radialGradient7598-526"
       xlink:href="#linearGradient5060-179"
       gradientUnits="userSpaceOnUse"
       gradientTransform="matrix(0.03212956,0,0,0.03705882,24.636785,25.412461)" />
    <linearGradient
       id="linearGradient5048-585">
      <stop
         id="stop2667"
         style="stop-color:black;stop-opacity:0"
         offset="0" />
      <stop
         id="stop2669"
         style="stop-color:black;stop-opacity:1"
         offset="0.5" />
      <stop
         id="stop2671"
         style="stop-color:black;stop-opacity:0"
         offset="1" />
    </linearGradient>
    <linearGradient
       x1="302.85715"
       y1="366.64789"
       x2="302.85715"
       y2="609.50507"
       id="linearGradient7596-975"
       xlink:href="#linearGradient5048-585"
       gradientUnits="userSpaceOnUse"
       gradientTransform="matrix(0.08284024,0,0,0.03705882,-5.9408285,25.412461)" />
    <linearGradient
       id="linearGradient3390-178-986-453">
      <stop
         id="stop3624"
         style="stop-color:#bb5e12;stop-opacity:1"
         offset="0" />
      <stop
         id="stop3626"
         style="stop-color:#cd8033;stop-opacity:1"
         offset="1" />
    </linearGradient>
    <linearGradient
       x1="82.453476"
       y1="45.114193"
       x2="65.340263"
       y2="15.943953"
       id="linearGradient2779"
       xlink:href="#linearGradient3390-178-986-453"
       gradientUnits="userSpaceOnUse"
       gradientTransform="translate(-53.765393,-0.1141929)" />
    <linearGradient
       id="linearGradient7012-661-145-733-759-865-745-661-970-94">
      <stop
         id="stop3618"
         style="stop-color:#edd563;stop-opacity:1"
         offset="0" />
      <stop
         id="stop3620"
         style="stop-color:#e08223;stop-opacity:1"
         offset="1" />
    </linearGradient>
    <radialGradient
       cx="63.969177"
       cy="14.113381"
       r="23.097054"
       fx="63.969177"
       fy="14.113381"
       id="radialGradient2777"
       xlink:href="#linearGradient7012-661-145-733-759-865-745-661-970-94"
       gradientUnits="userSpaceOnUse"
       gradientTransform="matrix(1.5646925,-9.5143002e-8,6.1772287e-8,1.015888,-86.212573,8.1461173)" />
    <linearGradient
       id="linearGradient6129-963-697-142-998-580-273">
      <stop
         id="stop2661"
         style="stop-color:#0a0a0a;stop-opacity:0.498"
         offset="0" />
      <stop
         id="stop2663"
         style="stop-color:#0a0a0a;stop-opacity:0"
         offset="1" />
    </linearGradient>
    <linearGradient
       x1="22.934725"
       y1="49.629246"
       x2="22.809399"
       y2="36.657963"
       id="linearGradient2774"
       xlink:href="#linearGradient6129-963-697-142-998-580-273"
       gradientUnits="userSpaceOnUse"
       gradientTransform="matrix(1.1446925,0,0,0.9977536,-3.4661413,1.0988425)" />
    <linearGradient
       id="linearGradient6087-437-184-795-110-662-495">
      <stop
         id="stop2693"
         style="stop-color:white;stop-opacity:0.40000001"
         offset="0" />
      <stop
         id="stop2695"
         style="stop-color:white;stop-opacity:0"
         offset="1" />
    </linearGradient>
    <radialGradient
       cx="7.2646537"
       cy="8.3021259"
       r="20.979567"
       fx="7.2646537"
       fy="8.3021259"
       id="radialGradient2771"
       xlink:href="#linearGradient6087-437-184-795-110-662-495"
       gradientUnits="userSpaceOnUse"
       gradientTransform="matrix(0,1.2079744,-1.6271642,0,26.371748,8.2664685)" />
    <linearGradient
       id="linearGradient8265-821-176-38-919-66-249">
      <stop
         id="stop2687"
         style="stop-color:white;stop-opacity:0.27450982"
         offset="0" />
      <stop
         id="stop2689"
         style="stop-color:white;stop-opacity:0.07843138"
         offset="1" />
    </linearGradient>
    <linearGradient
       x1="11.566265"
       y1="22.292103"
       x2="15.214532"
       y2="33.95525"
       id="linearGradient2768"
       xlink:href="#linearGradient8265-821-176-38-919-66-249"
       gradientUnits="userSpaceOnUse" />
  </defs>
  <g
     id="layer1">
    <path
       d="m 3.5062498,8.4999995 c -0.690271,0.00767 -1.0004418,0.3421461 -1.0004418,1 0,5.5144545 0.026278,9.7395765 -0.00581,14.7504305 1.4354706,0 42.999998,-3.699732 42.999998,-5.292264 l 0,-6.451519 c 0,-0.657853 -0.554204,-1.007671 -1.244479,-1 l -20.255519,0 c -2.047483,0 -3.498891,-3.0066475 -5,-3.0066475 l -15.4937503,0 z"
       id="path3468"
       style="fill:url(#linearGradient2786);fill-opacity:1;stroke:url(#radialGradient2788);stroke-width:1.00000012;stroke-linecap:round;stroke-linejoin:round;stroke-miterlimit:4;stroke-opacity:1;stroke-dasharray:none;display:inline" />
    <g
       transform="matrix(0.9583333,0,0,0.6666667,1.0000008,15)"
       id="g7591"
       style="opacity:0.4">
      <rect
         width="40"
         height="9"
         x="4"
         y="39"
         id="rect4173"
         style="fill:url(#linearGradient7596-975);fill-opacity:1;fill-rule:nonzero;stroke:none;stroke-width:1;marker:none;visibility:visible;display:inline;overflow:visible" />
      <path
         d="m 44,39.00031 c 0,0 0,8.999504 0,8.999504 1.654593,0.01694 4.000001,-2.016333 4,-4.500331 0,-2.483999 -1.846402,-4.499173 -4,-4.499173 z"
         id="path5058"
         style="fill:url(#radialGradient7598-526);fill-opacity:1;fill-rule:nonzero;stroke:none;stroke-width:1;marker:none;visibility:visible;display:inline;overflow:visible" />
      <path
         d="m 4,39.00031 c 0,0 0,8.999504 0,8.999504 C 2.3454068,48.016755 0,45.983481 0,43.499483 0,41.015484 1.8464008,39.00031 4,39.00031 z"
         id="path5018"
         style="fill:url(#radialGradient7600-312);fill-opacity:1;fill-rule:nonzero;stroke:none;stroke-width:1;marker:none;visibility:visible;display:inline;overflow:visible" />
    </g>
    <path
       d="m 2.1628556,16.525193 c -1.072707,0.123694 -0.49977,1.402118 -0.585297,2.121012 0.392532,8.47009 0.788932,16.769455 1.179047,25.239602 0.341836,0.965693 1.594435,0.47116 2.388117,0.59375 13.1935444,0 26.3870894,0 39.5806354,0 1.08938,-0.106651 0.63646,-1.407681 0.7897,-2.152262 0.39254,-8.47009 0.78894,-16.769455 1.17905,-25.239602 -0.25117,-0.954289 -1.51951,-0.424014 -2.263123,-0.5625 -14.089374,0 -28.178751,0 -42.2681294,0 z"
       id="path3388"
       style="fill:url(#radialGradient2777);fill-opacity:1;stroke:url(#linearGradient2779);stroke-width:1;stroke-linecap:round;stroke-linejoin:round;stroke-miterlimit:4;stroke-opacity:1;stroke-dashoffset:0" />
    <path
       d="m 2.0582428,16.065146 43.8964752,4.03e-4 c 0.63416,0 1.045155,0.444611 1.045155,0.997367 L 45.755637,44.002247 C 45.755637,44.555002 45.245105,45 44.610947,45 L 3.4020122,45 C 2.7678523,45 2.2573195,44.555002 2.2573195,44.002247 L 1.0130886,17.0629 c 0,-0.552757 0.4109943,-0.997754 1.0451542,-0.997754 z"
       id="path6127"
       style="opacity:0.4;fill:url(#linearGradient2774);fill-opacity:1;stroke:none" />
    <path
       d="m 46.5,17.5 c -13.53125,0 -30.46875,0 -44,0 0.3854167,8.177083 0.7708333,16.354167 1.15625,24.53125"
       id="path2435"
       style="fill:none;stroke:url(#radialGradient2771);stroke-width:0.99999976;stroke-linecap:round;stroke-linejoin:round;stroke-miterlimit:4;stroke-opacity:1;stroke-dasharray:none" />
    <path
       d="M 45.75,16 C 31.20041,16.073348 16.645416,15.978851 2.09375,16 0.28698984,16.411117 1.2593433,18.46661 1.1213236,19.771525 1.3433531,23.934872 1.4443903,28.116464 1.7417851,32.268407 16.742298,29.905609 31.66833,27.661153 46.40625,25.21875 47.187241,22.632172 47.193628,19.548156 47.063607,16.789526 46.834471,16.284964 46.276599,15.988682 45.75,16 z"
       id="path3455"
       style="fill:url(#linearGradient2768);fill-opacity:1;stroke:none" />
    <rect
       width="13"
       height="2"
       rx="1"
       ry="1"
       x="5"
       y="10"
       id="rect3562"
       style="fill:#edbd74;fill-opacity:1;fill-rule:nonzero;stroke:none;stroke-width:1;marker:none;visibility:visible;display:block;overflow:visible;enable-background:accumulate" />
  </g>
</svg>

<?xml version="1.0" encoding="UTF-8" standalone="no"?>
<!-- Created with Inkscape (http://www.inkscape.org/) -->
<svg id="svg3396" xmlns="http://www.w3.org/2000/svg" height="48" width="48" version="1.0" xmlns:xlink="http://www.w3.org/1999/xlink">
 <defs id="defs3398">
  <radialGradient id="radialGradient2455" gradientUnits="userSpaceOnUse" cy="5.0172" cx="3" gradientTransform="matrix(-1.2749e-8 1.7143 -2.1593 -1.46e-8 12.809 2.857)" r="21">
   <stop id="stop3486" style="stop-color:#bdbdbd" offset="0"/>
   <stop id="stop3488" style="stop-color:#d0d0d0" offset="1"/>
  </radialGradient>
  <linearGradient id="linearGradient2453" y2="16.19" gradientUnits="userSpaceOnUse" x2="62.989" gradientTransform="translate(-50.941)" y1="13.183" x1="62.989">
   <stop id="stop6406" style="stop-color:#f9f9f9" offset="0"/>
   <stop id="stop6408" style="stop-color:#c9c9c9" offset="1"/>
  </linearGradient>
  <radialGradient id="radialGradient7600-312" gradientUnits="userSpaceOnUse" cy="486.65" cx="605.71" gradientTransform="matrix(-.032130 0 0 .037059 23.363 25.412)" r="117.14">
   <stop id="stop2681" offset="0"/>
   <stop id="stop2683" style="stop-opacity:0" offset="1"/>
  </radialGradient>
  <radialGradient id="radialGradient7598-526" gradientUnits="userSpaceOnUse" cy="486.65" cx="605.71" gradientTransform="matrix(.032130 0 0 .037059 24.637 25.412)" r="117.14">
   <stop id="stop2675" offset="0"/>
   <stop id="stop2677" style="stop-opacity:0" offset="1"/>
  </radialGradient>
  <linearGradient id="linearGradient7596-975" y2="609.51" gradientUnits="userSpaceOnUse" x2="302.86" gradientTransform="matrix(.082840 0 0 .037059 -5.9408 25.412)" y1="366.65" x1="302.86">
   <stop id="stop2667" style="stop-opacity:0" offset="0"/>
   <stop id="stop2669" offset=".5"/>
   <stop id="stop2671" style="stop-opacity:0" offset="1"/>
  </linearGradient>
  <linearGradient id="linearGradient2446" y2="15.944" gradientUnits="userSpaceOnUse" x2="65.34" gradientTransform="translate(-53.765 -.11419)" y1="45.114" x1="82.453">
   <stop id="stop3624" style="stop-color:#bb2b12" offset="0"/>
   <stop id="stop3626" style="stop-color:#cd7233" offset="1"/>
  </linearGradient>
  <radialGradient id="radialGradient2444" gradientUnits="userSpaceOnUse" cy="14.113" cx="63.969" gradientTransform="matrix(1.5647 -9.5143e-8 6.1772e-8 1.0159 -86.213 8.1461)" r="23.097">
   <stop id="stop3618" style="stop-color:#f0c178" offset="0"/>
   <stop id="stop3270" style="stop-color:#e18941" offset=".5"/>
   <stop id="stop3620" style="stop-color:#ec4f18" offset="1"/>
  </radialGradient>
  <linearGradient id="linearGradient2441" y2="36.658" gradientUnits="userSpaceOnUse" x2="22.809" gradientTransform="matrix(1.1447 0 0 .99775 -3.4661 1.0988)" y1="49.629" x1="22.935">
   <stop id="stop2661" style="stop-color:#0a0a0a;stop-opacity:.498" offset="0"/>
   <stop id="stop2663" style="stop-color:#0a0a0a;stop-opacity:0" offset="1"/>
  </linearGradient>
  <radialGradient id="radialGradient2438" gradientUnits="userSpaceOnUse" cy="8.3021" cx="7.2647" gradientTransform="matrix(0 1.208 -1.6272 0 26.372 8.2665)" r="20.98">
   <stop id="stop2693" style="stop-color:#fff;stop-opacity:0.4" offset="0"/>
   <stop id="stop2695" style="stop-color:#fff;stop-opacity:0" offset="1"/>
  </radialGradient>
  <linearGradient id="linearGradient2435" y2="33.955" gradientUnits="userSpaceOnUse" x2="15.215" y1="22.292" x1="11.566">
   <stop id="stop2687" style="stop-color:#fff;stop-opacity:.27451" offset="0"/>
   <stop id="stop2689" style="stop-color:#fff;stop-opacity:.078431" offset="1"/>
  </linearGradient>
 </defs>
 <g id="layer1">
  <path id="path3468" style="stroke-linejoin:round;stroke:url(#radialGradient2455);stroke-linecap:round;fill:url(#linearGradient2453)" d="m3.5062 8.5c-0.6902 0.0077-1.0004 0.3421-1.0004 1 0 5.514 0.0263 9.74-0.0058 14.75 1.4355 0 43-3.699 43-5.292v-6.451c0-0.658-0.554-1.008-1.244-1h-20.256c-2.047 0-3.499-3.007-5-3.007h-15.494 0.0002z"/>
  <g id="g7591" style="opacity:.4" transform="matrix(.95833 0 0 .66667 1 15)">
   <rect id="rect4173" style="fill:url(#linearGradient7596-975)" height="9" width="40" y="39" x="4"/>
   <path id="path5058" style="fill:url(#radialGradient7598-526)" d="m44 39v9c1.655 0.017 4-2.017 4-4.501s-1.846-4.499-4-4.499z"/>
   <path id="path5018" style="fill:url(#radialGradient7600-312)" d="m4 39v9c-1.6546 0.017-4-2.017-4-4.501s1.8464-4.499 4-4.499z"/>
  </g>
  <path id="path3388" style="stroke-linejoin:round;stroke:url(#linearGradient2446);stroke-linecap:round;fill:url(#radialGradient2444)" d="m2.1629 16.525c-1.0728 0.124-0.4998 1.402-0.5853 2.121 0.3925 8.47 0.7889 16.77 1.179 25.24 0.3418 0.966 1.5944 0.471 2.3881 0.594h39.58c1.09-0.107 0.637-1.408 0.79-2.153 0.393-8.47 0.789-16.769 1.179-25.239-0.251-0.955-1.519-0.424-2.263-0.563h-42.268-0.0001z"/>
  <path id="path6127" style="opacity:.4;fill:url(#linearGradient2441)" d="m2.0582 16.065l43.897 0.001c0.634 0 1.045 0.444 1.045 0.997l-1.244 26.939c0 0.553-0.511 0.998-1.145 0.998h-41.209c-0.6341 0-1.1447-0.445-1.1447-0.998l-1.2442-26.939c0-0.553 0.411-0.998 1.0451-0.998z"/>
  <path id="path2435" style="stroke-linejoin:round;stroke:url(#radialGradient2438);stroke-linecap:round;fill:none" d="m46.5 17.5h-44l1.1562 24.531"/>
  <path id="path3455" style="fill:url(#linearGradient2435)" d="m45.75 16c-14.55 0.073-29.105-0.021-43.656 0-1.807 0.411-0.8347 2.467-0.9727 3.772 0.2221 4.163 0.3231 8.344 0.6205 12.496 15-2.362 29.926-4.607 44.664-7.049 0.781-2.587 0.788-5.671 0.658-8.429-0.23-0.505-0.787-0.801-1.314-0.79z"/>
  <rect id="rect3562" style="display:block;fill:#eda374" rx="1" ry="1" height="2" width="13" y="10" x="5"/>
 </g>
</svg>
